X: 8
T: Road to Westfield
C:Garry Harrison
B: canberra pickers and fiddlers
B: tunes
M:4/4
L:1/8
R: reel
Q: 1/4=100
K:A
V:1 
"A"EDCE [A2A2][EA]-[AA]-|"D"[AA]BAG "A"[CE]""GAB|cBAc ecAc|"E"BA[FA]B  (3"A"cBc [E2A2]-|
"A"[EA]DCE [A2A2][EA]-[AA]-|"D"[AA]BAG "A"[CE]""GAB|cBAc ecAc|1"E"BA[FA][EA] ((3"A"[Ec]Bc)  [E2A2]:|2"E"BA[EA]-[FA]  "A"[A4A4]:|
|:"A"A,2 ""a2 (3"D"faf ed|{B}"A"cBAG (3"E"FGF [EA][FA]|"A"[A2A2][AA](B cA)BA|"E"[ce]-[ee][e2e2] [e4e4]|
"A"A,2 a2 (3"D"faf ed|{B}"A"cBAG (3"E"FGF [EA][FA]|"A"[A2A2][AA](B cA)BA|"E"[FA]-[AA] [A2A2]"A"[A4A4]:|
% abcbook-tune_id 63ae8f1c8ac1fda2dbc9f1d3
% abcbook-tune_composer_id 
% abcbook-link-0 https://www.youtube.com/watch?v=yyZBtJSOofM
% abcbook-boost 7
% abcbook-difficulty 0
% abcbook-tags canberra pickers and fiddlers,old time tunes,steve ryan,© free
% abcbook-tablature 
% abcbook-transpose 
% abcbook-tuning AEAE
% abcbook-lastupdated 1723940256919
% abcbook-src-url https://tunebook.net/scrape/tunes.abc
% abcbook-soundfonts 
% abcbook-repeats 1


